symbols/web/home_repair_service/materialsymbolssharp/home_repair_service_fill1_20px.svg

<svg xmlns="http://www.w3.org/2000/svg" height="20" width="20"><path d="M1.667 11.625V6.667h4.125V3.292h8.375v3.375h4.166v4.958H15V9.958h-1.75v1.667h-6.5V9.958H5v1.667Zm5.916-4.958h4.834V5.042H7.583Zm-5.916 10v-4.125H5v.833h1.75v-.833h6.5v.833H15v-.833h3.333v4.125Z"/></svg>

<svg xmlns="http://www.w3.org/2000/svg" height="20" width="20"><path d="M1.667 11.625V6.667H5.792V3.292H14.167V6.667H18.333V11.625H15V9.958H13.25V11.625H6.75V9.958H5V11.625ZM7.583 6.667H12.417V5.042H7.583ZM1.667 16.667V12.542H5V13.375H6.75V12.542H13.25V13.375H15V12.542H18.333V16.667Z"/></svg>
